X: 160367
T: Patrick Street Polka
S: "Patrick Street"
Z: B.Black
R: polka
M: 2/4
L: 1/8
K: A
E2 Ec | BA Bc | E2 Ec | BA F2 |
E2 Ec | BA Bc | E2 e>c | BA A2 :|
ce B>c | BA FE | ce B>c | BA A2 |
ce B>c | BA FA | E2 e>c | BA A2 :|
